icons/desktop/20/heart-20.svg

<svg width="20" height="20" viewBox="0 0 20 20" fill="none" xmlns="http://www.w3.org/2000/svg">
<path d="M5.64925 10.0581C6.01823 9.74616 6.57067 9.7927 6.88168 10.1626C7.21168 10.5536 7.43813 10.7943 7.44613 10.8033C7.72913 11.1013 8.04637 11.4223 8.39437 11.7583C8.62032 11.9753 8.86016 12.1993 9.1141 12.4273C9.47301 12.7502 9.50329 13.3027 9.17953 13.6617C9.00653 13.8537 8.76814 13.9517 8.52914 13.9517L8.53109 13.9527C8.32219 13.9526 8.11305 13.879 7.94613 13.7281C7.67619 13.4861 7.42338 13.249 7.18343 13.0191C6.81353 12.6642 6.47947 12.3252 6.17953 12.0093C6.17953 12.0093 5.92176 11.7376 5.54476 11.2906C5.23287 10.9206 5.27942 10.3701 5.64925 10.0581Z" fill="black"/>
<path fill-rule="evenodd" clip-rule="evenodd" d="M5.77718 2.02494C7.41101 2.12693 8.919 3.01978 9.99398 4.5015C11.0389 3.06364 12.4893 2.19415 14.0682 2.05912C15.7512 1.91312 17.4272 2.64795 18.6512 4.06889C19.6282 5.20285 20.0982 6.6349 19.9832 8.11185C19.9832 8.13285 19.9833 8.15528 19.9803 8.17728C19.7751 10.9042 16.6556 14.2603 16.3006 14.6343C15.9717 14.9812 15.5993 15.3566 15.1844 15.7515C14.2554 16.6355 13.2082 17.488 11.9842 18.357C11.9803 18.3599 11.9755 18.3628 11.9715 18.3648L11.9452 18.3833C11.3662 18.7942 10.6818 18.9995 9.99789 18.9995C9.31302 18.9995 8.62674 18.7943 8.04086 18.3824C7.01903 17.6625 6.19963 17.0179 5.46273 16.354C4.85076 15.8031 4.25513 15.2243 3.69515 14.6343C3.34117 14.2613 0.220675 10.9052 0.015465 8.17728C-0.062535 7.13528 0.177402 6.25053 0.226402 6.08353C0.428409 5.41671 0.746763 4.8081 1.17367 4.26322C2.37264 2.73428 4.05824 1.91499 5.77718 2.02494ZM5.66976 3.77299C4.51676 3.70899 3.4036 4.25925 2.5516 5.34525C2.25869 5.71914 2.04014 6.13567 1.90414 6.58451C1.90414 6.58451 1.70456 7.2804 1.76156 8.0474C1.89688 9.83441 4.11973 12.5393 4.96566 13.4302C5.49258 13.9871 6.05473 14.5333 6.63363 15.0542C7.31855 15.6701 8.08579 16.2728 9.04964 16.9517C9.61863 17.3516 10.3802 17.3487 10.9452 16.9488L11.3973 16.6226C12.3725 15.9083 13.2207 15.2058 13.9784 14.4849C14.3702 14.112 14.7201 13.7581 15.0321 13.4302C15.864 12.5533 18.0292 9.92129 18.2284 8.13529C18.2284 8.10936 18.2303 8.08214 18.2323 8.05521C18.3353 7.01827 18.0119 6.00844 17.326 5.21146C16.4601 4.20553 15.3505 3.70837 14.2196 3.80228C13.0166 3.90528 11.902 4.67082 11.161 5.90482C10.629 6.7938 9.33837 6.75586 8.85238 5.94486C8.07048 4.64206 6.91057 3.85015 5.66976 3.77299Z" fill="black"/>
</svg>

<!-- This Source Code Form is subject to the terms of the Mozilla Public
   - License, v. 2.0. If a copy of the MPL was not distributed with this
   - file, You can obtain one at http://mozilla.org/MPL/2.0/. -->
<svg xmlns="http://www.w3.org/2000/svg" width="20" height="20" fill="context-fill" fill-opacity="context-fill-opacity" viewBox="0 0 20 20">
    <path d="M5.65 10.058a.873.873 0 0 1 1.232.105c.33.39.556.631.564.64a29.25 29.25 0 0 0 1.668 1.624.873.873 0 0 1-.585 1.525h.002a.87.87 0 0 1-.585-.224A31 31 0 0 1 6.18 12.01s-.258-.271-.635-.718a.874.874 0 0 1 .104-1.233" />
    <path fill-rule="evenodd" d="M5.777 2.025c1.634.102 3.142.995 4.217 2.477 1.045-1.438 2.495-2.308 4.074-2.443 1.683-.146 3.36.589 4.583 2.01a5.5 5.5 0 0 1 1.332 4.043q0 .031-.003.065c-.205 2.727-3.324 6.083-3.68 6.457-.328.347-.7.723-1.116 1.117a29 29 0 0 1-3.212 2.614l-.027.018a3.4 3.4 0 0 1-3.904 0 27 27 0 0 1-2.578-2.029 32 32 0 0 1-1.768-1.72c-.354-.373-3.474-3.729-3.68-6.457a6.3 6.3 0 0 1 .211-2.093q.305-1.002.948-1.82c1.199-1.53 2.884-2.349 4.603-2.24M5.67 3.773c-1.153-.064-2.266.486-3.118 1.572-.293.374-.512.79-.648 1.24 0 0-.2.695-.142 1.462.135 1.787 2.358 4.492 3.204 5.383.527.557 1.089 1.103 1.668 1.624a26 26 0 0 0 2.416 1.898c.569.4 1.33.397 1.895-.003l.452-.326a26 26 0 0 0 3.635-3.193c.832-.877 2.997-3.509 3.196-5.295l.004-.08a3.76 3.76 0 0 0-.906-2.844c-.866-1.005-1.976-1.503-3.106-1.409-1.203.103-2.318.869-3.059 2.103-.532.889-1.823.85-2.309.04C8.07 4.642 6.911 3.85 5.67 3.773" clip-rule="evenodd" />
</svg>
